X:1
T:Title
%%score [ ( 1 2 ) 3 ( 4 5 ) ( 6 7 ) ]
L:1/8
Q:1/4=168
M:3/4
K:Fmin
V:1 treble nm="Sopran"
V:2 treble 
V:3 treble nm="Alt"
V:4 treble-8 nm="Tenor"
V:5 treble-8 
V:6 bass nm="Bas"
V:7 bass 
V:1
!f!"^Allegro scherzando" f2 f2 c2"^168   184" | z6"^-" | z6 | z6 || %4
w: Aj- de de!||||
!mf!"^a tempo" !fermata!f2 c2 f>e | !tenuto!.e2 e2 =d>c | !>!c2 e2 =d>c | c2 !>!e2 =d>c | %8
w: O- tud i- de|lu- do mla- do,|lu- do mla- do|ne- že- nje- no,|
!mf! !>!c2 c2 =B>A | A2 !>!A2 G>F | F2 !>!A2 G>F | [=Ec]2 !>![EA]2 G>F | !>!F2 A2 G>F | %13
w: ka- pa- ta mu|od ja- zo- vec,|o- pin- ci mu|od re- še- to,|pra- vo pre- či|
 c2 !>!A2 G2 | F2 F2 C2 | z6 | z6 | z6 ||[K:F]"^[a tempo]"!p! z2 z2 B2 | z2 z2 c2 | z2!<(! d2 B2 | %21
w: u se- lo,|aj- de de!||||Pra-|vo|pre- či|
 B2 !>!c2!<)! A2 |!mf! z2 z2 d2 | z2 z2 f2 | z2 d2 g2 | e2 e2 f2 || z6 | z6 | z6 || z6 | %30
w: u se- lo.|Ce-|ni-|le go|ko- za- ra.|||||
!mf!"^a tempo" f2 (f_e) d>c |!>(! (d_e) (dc) B2!>)! |!p! A4 c2 | B4 c2 | A4!<(! F2 | %35
w: Ce- ni- * le go|se- * lja- * ni,|ce- ni-|le go|go- ve-|
 (B2!<)! d2) f2 |!p! A4 c2 | B4 c2 | G4 A2 |!<(! (D2 E2) F2 |!f! f2 f2!<)! !fermata!c2 | z6 | z6 | %43
w: da- * ra,|ce- ni-|le go|za ko-|za- * ra,|aj- de de!|||
 z6 ||[K:Fmin]!f!"^[a tempo]" f2 c2 f>e | e2 !>!e2 =d>c | c2 !>!e2 =d>c | c2 !>!e2 =d>c | %48
w: |Bi- ra- le go|svi se- lja- ni,|bi- ra- le go|za- ko- za- ra,|
!mf! c2 !>!c2 =B>A | A2 !>!A2 G>F | F2 !>!A2 G>F | [=Ec]2 !>![EA]2 G>F |!p! F2 !>!A2 G>F | %53
w: da- do- še mu|tri ko- zi- ce,|tri o- te- ra,|dve do- te- ra,|pa se ču- di|
 c2 A2 G>G |!>(! F2 F2!>)! !fermata!C2 | z6 | z6 | z6 ||[K:F]"^[a tempo]"!p! !fermata!z2 z2 B2 | %59
w: ko- ja ne- ma,|ko- ja de?||||Po-|
 z2 z2 c2 | z2!<(! d2 B2 | B2!<)! c2 A2 |!mf!"^cresc." F2 (GA) B>F | B2 c2 A2 | %64
w: pe-|la se|ko- zi- ca,|pa- de * ko- za|te um- re,|
!f! !>!B2"^rit."!<(! (cd) !>!_e>=e!<)! | f2 !>!g2 !>!!fermata!c2 || %66
w: sta- de * mom- če|da re- ve:|
!fff!"^[a tempo]" !>![c_a]2 [ca]2 [cg]2 | [B_g]2 [Bg]2 [Bf]2 | !>!=e2 e2 f2 | %69
w: "Le- le- le,|le- le- le,|le- le- le,|
"^poco rit."!>(! !>![=E=c]2 [Ec]2!>)! [Ff]2"^poco meno mosso" | z6 |!mf!!>(! !>!c2 c2!>)! c2 | z6 | %73
w: ko- zi- ce,||le- le- le,||
!p!!>(! !>!BB BB!>)! B2 |!pp! F4 F2 | =E2 E2 !fermata!F2 | %76
w: le- le- le- le le,|vi- ta|ro- gu- šo,|
!pp!"^a tempo""^[""^-"!<(! z2!<)!!>(! c4!>)!"^126""^132""^]" |!<(! z2!<)!!>(! c4!>)! | %78
w: ci!|ci!|
!<(! z2!<)!!>(! c4!>)! |!<(! z2!<)!!>(! c4!>)! |!mf! =d2 c2 =B2 | (c=B) (_AG) F x | d2 c2 =B>B | %83
w: ci!|ci!|ci! ci! ci!|ko- * zi- * ce,|mo- ja vi- ta|
 (c=B) (_AG) F2 |!p! F2 G4- |"^poco rit."!>(! G6- |!pp! G6-!>)! | !fermata!G6 || %88
w: ro- * gu- * šo,|le- le!|_|||
!p!"^a tempo""^[""^-" c2 (c"^126"B)"^132""^]" =A>F | G2 F2 d2 | c2 (cB) A>F | G2 F2 F2 | %92
w: Kad ja * te- be|na- kor- mim,|ča- bar * mle- ko|na- do- jim,|
 c2 (cB) A>F | G2 F2 d2 | c2 (cB) A>F |"^poco a poco rit. e dim." G2 F2 F2- | F6 | !>!G2 F2 F2- | %98
w: ča- bar * mle- ko|na- do- jim,|te svi * mom- ci|na- ra- nim,|_|le- le- le,|
 F6 | !>!G2 F2 F2- |!>(! F6-!>)! | !fermata!F6 |] %102
w: _|le- le- le!"|_||
V:2
 x6 | x6 | x6 | x6 || x6 | x6 | x6 | x6 | x6 | x6 | x6 | x6 | x6 | x6 | x6 | x6 | x6 | x6 || %18
[K:F] x6 | x6 | x6 | x6 | x6 | x6 | x6 | x6 || x6 | x6 | x6 || x6 | x6 | x6 | x6 | x6 | x6 | x6 | %36
 x6 | x6 | x6 | x6 | x6 | x6 | x6 | x6 ||[K:Fmin] x6 | x6 | x6 | x6 | x6 | x6 | x6 | x6 | x6 | x6 | %54
 x6 | x6 | x6 | x6 ||[K:F] x6 | x6 | x6 | x6 | x6 | x6 | x6 | x6 || x6 | x6 | B2 _A2 (GF) | x6 | %70
 x6 | x6 | x6 | x6 | x6 | x6 | x6 | x6 | x6 | x6 | x6 | x6 | x6 | x6 | x6 | x6 | x6 | x6 || x6 | %89
 x6 | x6 | x6 | x6 | x6 | x6 | x6 | x6 | x6 | x6 | x6 | x6 | x6 |] %102
V:3
 z6 |!mf! F2"^[" F2"^]" !fermata!C2 | z6 | z6 || z6 |!mf! c2 C4 | A6 | G6 |!p! F4 F2 | F4 C2 | %10
w: |Aj- de de!||||O- tud|i-|de|lu- do|mla- do|
 =B,4 B,2 | C4 C2 | !>!F4 F2 | (=E2 =D2) E2 | C2 =D2 =E2 | F2 !fermata!F2 !fermata!C2 | z6 | z6 || %18
w: ne- že-|nje- no,|pra- vo|pre- * či|u se- lo,|aj- de de!|||
[K:F]!p! z2 z2 F2 | z2 z2 F2 | z2!<(! F2 G2 | E2 !>!E2!<)! F2 |!mf! z2 z2 B2 | z2 z2 c2 | %24
w: Pra-|vo|pre- či|u se- lo.|Ce-|ni-|
 z2 F2 B2 | B2 c2 A2 ||!<(! z6 | z6!<)! |!>(! z6!>)! || z6 |!mf! (FG A2) B2 |!>(! F6!>)! | %32
w: le go|ko- za- ra.|||||Aj- * * de|de,|
!p! F4 F2 | F4 F2 | !>!E4!<(! D2 | (F2!<)! B2) A2 |!p! F4 F2 | F4 F2 | F4 F2 |!<(! (D2 C2) C2!<)! | %40
w: ce- ni-|le go|go- ve-|da- * ra,|ce- ni-|le go|za ko-|za- * ra,|
 z6 |!mf! F2 F2 !fermata!C2 | z6 | z6 ||[K:Fmin] z6 |!mf! !>!c2 C4 | A6 | G6 |!p! F4 F2 | F4 C2 | %50
w: |aj- de de!||||Da- do-|še|mu|tri ko-|zi- ce,|
 =B,2 B,2 B,>B, | C2 C2 C>C |!p! F2 !>!F2 G>F | (=E2 =D2) E2 | (C2 =D2) =E2 | %55
w: tri o- te- ra,|dve do- te- ra,|pa se ču- di|ko- * ja|ne- * ma,|
!>(! F2 F2!>)! !fermata!C2 | z6 | z6 ||[K:F]!p! !fermata!z2 z2 F2 | z2 z2 F2 | z2!<(! F2 G2 | %61
w: ko- ja de?|||Po-|pe-|la se|
 E2!<)! !>!E2 F2 |!mf! F2 F2 F>F | F2 =E2 F2 |!f! !>!B2!<(! B2 !>!B>_d!<)! | %65
w: ko- zi- ca,|pa- de ko- za|te um- re,|sta- de mom- če|
 c2 !>!B2 !>!!fermata!G2 ||!fff! !>!_A2 A2 G2 | _G2 G2 F2 | !>!=E2 E2 _d2 |!>(! !>!c2 _B2!>)! _A2 | %70
w: da re- ve:|"Le- le- le,|le- le- le,|le- le- le,|ko- zi- ce,|
 z6 |!mf!!>(! !>!C2 C2!>)! C2 | z6 |!p!!>(! !>!B,B, B,B,!>)! B,2 |!pp! _D2 C2 =B,>B, | %75
w: |le- le- le,||le- le- le- le le,|mo- ja vi- ta|
 C2 C2 !fermata!C2 |!mp! C2 F2 (G_A) | B2 (_AG) F2 | C2 F2 G>_A | B2 (_AG) F2 | z2 F4 | E2 E2 F2 | %82
w: ro- gu- šo,|ci! ci! ci! *|ko- zi- * ce,|mo- ja vi- ta|ro- gu- * šo,|ci!|ko- zi- ce,|
 _A2 F2 G>G | !>!G2 C2 C2 |!p! F2 F4- | F6 |!pp! E2 E4- | !fermata!E6 ||!p! z2!<)!!<(!!>(! F4!>)! | %89
w: mo- ja vi- ta|ro- gu- šo,|le- le!|_|le- le!|_|Ci!|
 z2!<)!!<(!!>(! F4!>)! | z2 F2 F2 | F6 |!pp! z2 F4 | z2 F4 | z2 F2 F2 | F6 | _E2 !>!E4 | _D4 x2 | %98
w: ci!|ko- zi-|ce,|vi-|ta|ro- gu-|šo,|le- le-|le,|
 C2 !>!_E4 | _D6 |!>(! C2 C4-!>)! | !fermata!C6 |] %102
w: le- le-|le,|le- le!"|_|
V:4
 z6 | z6 |!mf! F2 F2 !fermata!C2 | z6 || z6 | z6 |!mf! f2 c2 f>e | e4 e2 |!p! A4 _d2 | c4 A2 | %10
w: ||Aj- de de!||||O- tud i- de|lu- do|mla- do|ne- že-|
 A4 A2 | B4 A2 | d2 c2 =B2 | c2 =B2 _B2 | !>!B2 A2 G>G | c2 !>!A2 G2 | F2 F2 !fermata!C2 | z6 || %18
w: nje- no,|o- pin-|ci mu od|re- še- to,|pra- vo pre- či|u se- lo,|aj- de de!||
[K:F]!mf!!p! z2 z2 d2 | z2 z2 _e2 | z2!<(! d2 d2 | c2 c2!<)! c2 |!mf! z2 z2 f2 | z2 z2 f2 | %24
w: le|ni:|li ma-|bil' mno- go."|Ce-|ni-|
 z2 d2 d2 | c2 c2 c2 ||!mf!"^cresc." f2 c2 f2- |!f! f2"^rit." dd g2- |!>(! g6!>)! || %29
w: le go|ko- za- ra.|aj- de de,|_ aj- de de!|_|
!mf! f2 (f_e) d>c | (d_e) (dc) B2 |!>(! (f2 _e2)!>)! d2 |!mf!!p! c4 _e2 | d4 c2 | c4!<(! A2 | %35
w: Ce- ni- * le go|se- * lja- * ni,|aj- * de,|da- *|||
 d4!<)! c2 |!p!!mf! c4 _e2 | d4 c2 | d4 c2 |!<(! B4!<)! A2 | z6 | z6 |!mf! F2 F2 !fermata!C2 | %43
w: |||||||aj- de de!|
 z6 ||[K:Fmin] z6 | z6 |!mf! f2 c2 f>e | e6 |!p! A4 _d2 | c4 A2 | A4 A2 | B4 A2 |!p! d2 c2 =B2 | %53
w: |||Da- do- še mu|se-|lja- ni|tri ko-|zi- ce,|tri o-|te- ra, dve|
 c2 =B2 _B2 | B2 A2 G>G | c2 A2 G>G |!>(! F2 F2 !fermata!C2!>)! | z6 ||[K:F]!mf!!p! z2 z2 d2 | %59
w: do- te- ra,|pa se ču- di|ko- ja ne- ma,|ko- ja de?|||
 z2 z2 _e2 | z2!<(! d2 d2 | c2!<)! c2 c2 |!mf! F2 c2 B>_e | d2 c2 c2 | %64
w: |||pa- de ko- za|te um- re,|
!f! !>!B2!<(! f2 !>!_e>g!<)! | f2 !>!f2 !>!!fermata!=e2 ||!fff! !>![cf]2 [cf]2 [c=e]2 | %67
w: sta- de mom- če|da re- ve:|"Le- le- le,|
 [B_e]2 [Be]2 [B=d]2 | [B_d]2 [_Ac]2 [G=B]2 |!>(! c2 (_AG)!>)! F2 | %70
w: le- le- le,|le- le- le,|ko- zi- * ce,|
!mf! !>![=Bf]2 [Bf]2!>(! [c=e]2- | [ce]6!>)! |!p! [_B_e]2 [=Ae]2!>(! [Bd]2- | [Bd]6!>)! | %74
w: le- le- le,|_|le- le- le,|_|
!pp! _d2 c2 =B>B | c2 _B2 !fermata!_A2 | z6 |!mp! C2 F2 (G_A) | B2 (_AG) F2 | C2 F2 G>_A | %80
w: |ro- gu- šo,||ci! ci! ci! *|ko- zi- * ce,|mo- ja vi- ta|
 B2 (_AG) F2 | G2 c2 c2 | f2 d4 | !>!c2 _B2 _A2 | z6 |!p! !tenuto!._d2 !tenuto!.d2 z2 | %86
w: ro- gu- * šo,|ko- zi- ce,|mo- ja|ro- gu- šo,||le- le!|
!pp! c2 c4- | !fermata!c6 ||!p!!<(!!>(! c6!<)!!>)! |!<(!!>(! d6!<)!!>)! |!<(! c4!<)!!>(! c2!>)! | %91
w: le- le!|_|Ci!|ci!|ko- zi-|
!<(!!>(! d6!<)!!>)! |!pp!!<(!!>(! c6!<)!!>)! |!<(!!>(! d6!<)!!>)! | c4 c2 | d6 | c6 | B6 | %98
w: ce,|vi-|ta|ro- gu-|šo,|le-|le,|
 A2 !>!c4 | B6 |!>(! A2 A4-!>)! | !fermata!A6 |] %102
w: le- le-|le,|le- le!"|_|
V:5
 x6 | x6 | x6 | x6 || x6 | x6 | x6 | x6 | x6 | x6 | (A2 F2) x2 | x6 | A2 A2 A2 | G2 A2 x2 | x6 | %15
w: |||||||||||||||
 x6 | x6 | x6 ||[K:F] F2 (GA) B>F | B2 c2 A2 | A2 B2 G>F | G2 A2 F2 | x6 | x6 | x6 | x6 || x6 | %27
w: |||* * * * go||* * * lo,|||||||
 x6 | x6 || x6 | x6 | x6 | c2 (cB) A>F | G2 F2 A2 | c2 (cB) A>F | G2 F2 F2 | c2 (cB) A>F | %37
w: |||||* va- * še mu|go- ve- da,|ne- kje * mom- če|go- ve- da,|da- va- * še mu|
 G2 F2 A2 | d2 (cB) A>F | G2 G2 F2 | x6 | x6 | x6 | x6 ||[K:Fmin] x6 | x6 | x6 | x6 | x6 | x6 | %50
w: ko- zi- ce,|o- kje * mom- če|ko- zi- ce,|||||||||||
 (A2 F2) x2 | x6 | A2 A2 A2 | A2 A2 x2 | x6 | x6 | x6 | x6 ||[K:F] F2 (GA) B>F | B2 c2 A2 | %60
w: ||||||||Po- pe- * la se|ko- zi- ca|
 A2 B2 G>F | G2 A2 F2 | x6 | x6 | x6 | x6 || x6 | x6 | x6 | !>!G2 c2 c2 | x6 | x6 | x6 | x6 | %74
w: na dva na tri|glo- gov- ca,|||||||||||||
 _A4 A2 | G2 x4 | x6 | x6 | x6 | x6 | x6 | x6 | x6 | x6 | x6 | x6 | x6 | x6 || A6 | B6 | A4 A2 | %91
w: vi- ta|||||||||||||||||
 B6 | A6 | B6 | A4 A2 | B6 | A6 | x6 | x6 | x6 | x6 | x6 |] %102
w: |||||||||||
V:6
 z6 | z6 | z6 |!mp!"^[rit.]" F,,2 F,,2 !fermata![C,,C,]2 || z6 | z6 | z6 |!mf! C2 C,4 |!p! F,6 | %9
w: |||Aj- de de!||||O- tud|i-|
 E,6 | D,6 | C,6 | B,,2 C,2 D,2 | C,2 =E,2 C,2 | (F,2 C2) B,2 | A,2 C2 B,>B, | A,2 !>!A,2 G,2 | %17
w: de|lu-|do,|o- pin- ci|mu od re-|še- * to,|pra- vo pre- či|u se- lo,|
"^[rit.]" F,2 C,2 F,, !fermata!z ||[K:F]!mf!!p! F,2 (G,A,) B,>F, | B,2 C2 A,2 | A,2 B,2 G,>F, | %21
w: aj- de de!|* * * Pra- *|* * vo|* pre- či *|
 G,2 !>!A,2 F,2 |!f! [F,,F,]2 ([G,,G,][A,,A,]) [B,,B,]>[F,,F,] | [B,,B,]2 [C,C]2 [A,,A,]>[F,,F,] | %24
w: u se- lo.|Ce- ni- * le go|go- ve- da- ra,|
 [A,,A,]2 [B,,B,]2 [G,,G,]>[F,,F,] | [G,,G,]2 [A,,A,]2 [F,,F,]2 || %26
w: ce- ni- le go|ko- za- ra,|
!mf!!<(! [D,A,]2 [E,G,]2 [F,A,]2 |!f! [G,B,]2 [A,C]2!<)! [B,D]2- | [B,D]6 || %29
w: aj- de de,|aj- de de!|_|
!mf! [A,C]2 [G,B,]2 [F,A,]>[F,A,] | B,2 F,2 G,2 |!>(! A,4!>)! B,2 |!mf! C2 (CB,) A,>F, | %33
w: ||||
 G,2 F,2 A,2 | C2 (CB,) A,>F, | G,2 F,2 F,2 |!p!!mf! C2 (CB,) A,>F, | !>!G,2 F,2 A,2 | %38
w: |||||
 D2 (CB,) A,>F, |!<(! G,2 G,2!<)! F,2 | z6 | z6 | z6 |!mp!"^[rit.]" F,,2 F,,2 !fermata![C,,C,]2 || %44
w: |||||aj- de de!|
[K:Fmin] z6 | z6 | z6 |!mf! C2 C,4 |!p! F,4 F,2 | E,6 | D,4 D,2 | C,6 |!p! B,,2 C,2 D,2 | %53
w: |||Da- do-|še mu|tri|ko- zi-|ce,|tri o- te-|
 C,2 =E,2 C,2 | (F,2 C2) B,2 | A,2 C2 B,>B, | A,2 A,2 G,>G, | %57
w: ra, dve do-|te- * ra,|pa se ču- di|ko- ja ne- ma,|
"^[rit.]"!>(! F,2 C,2!>)! F,, !fermata!z ||[K:F]!mf!!p! F,2 (G,A,) B,>F, | B,2 C2 A,2 | %60
w: ko- ja de?|||
 A,2 B,2 G,>F, | G,2 A,2 F,2 |!mf! F,2 _E,2 D,>C, | B,,2 G,2 F,2 | %64
w: ||pa- de ko- za|te um- re,|
!f! !>![B,,B,]2!<(! [_A,,_A,]2!<)! !>![G,,G,]>[B,,B,] | %65
w: sta- de mom- če|
 [_A,,_A,]2 !>![_D,_D]2 !>!!fermata![C,C]2 ||!fff! !>!F,2 F,2 [C,C]2 | [_E,_E]2 [E,E]2 [B,,B,]2 | %68
w: da re- ve:|"Le- le- le,|le- le- le,|
 !>![_D,_D]2 [C,C]2 [=B,,=B,]2 | !>![C,C]2 ([_A,,_A,][G,,G,]) [F,,F,]2 | %70
w: le- le- le,|ko- zi- * ce,|
!mf! !>![_D,_A,]2 [D,G,]2!>(! [C,G,]2- | [C,G,]6!>)! |!p! [_E,_G,]2 [C,F,]2!>(! [B,,F,]2- | %73
w: le- le- le,|_|le- le- le,|
 [B,,F,]6!>)! |!pp! _D,2 C,2 =B,,>B,, | C,2 ([_A,,_A,][G,,G,]) !fermata![F,,F,]!<(! x!<)! | %76
w: _|mo- ja vi- ta|ro- gu- * šo,|
!pp!!>(! [F,,C,]6!>)! |!<(!!>(! [F,,C,]6!<)!!>)! |!<(!!>(! [F,,C,]6!<)!!>)! | %79
w: ci!|ci!|ci!|
!<(!!>(! [F,,C,]6!<)!!>)! | [F,,C,]2 z2 [_D,,_D,]2 | [C,,C,]2 [B,,B,]2 ([_A,,_A,][G,,G,]) | %82
w: ci!|ci! ci!|ko- zi- ce, *|
 [F,,F,]2 [_A,,_A,]2 [G,,G,]>[F,,F,] | [=E,,=E,]2 [E,,E,]2 [F,,F,]2 | z6 | %85
w: mo- ja vi- ta|ro- gu- šo,||
!p! !tenuto!.B,2 !tenuto!.B,2 z2 |!pp! [C,,C,]2 [C,,C,]4- | !fermata![C,,C,]6 || %88
w: |le- le!|_|
!p!!<(!!>(! [F,,F,]6!<)!!>)! |!<(!!>(! [B,,F,]6!<)!!>)! |!<(! [F,,F,]4!<)!!>(! [F,,F,]2!>)! | %91
w: Ci!|ci!|ko- zi-|
!<(!!>(! [B,,F,]6!<)!!>)! |!pp!!<(!!>(! [F,,F,]6!<)!!>)! |!<(!!>(! [B,,F,]6!<)!!>)! | %94
w: ce,|vi-|ta|
 [F,,F,]4 [F,,F,]2 | [B,,F,]6 | [F,,F,]6 | [B,,F,]6 | [F,,F,]6 | [B,,F,]6 | %100
w: ro- gu-|šo,|le-|le,|le-|le,|
!>(! [F,,F,]2 [F,,F,]4-!>)! | !fermata![F,,F,]6 |] %102
w: le- le!"|_|
V:7
 x6 | x6 | x6 | x6 || x6 | x6 | x6 | x6 | x6 | x6 | x6 | x6 | x6 | x6 | x6 | x6 | x6 | x6 || %18
w: ||||||||||||||||||
[K:F] z2 z2 B,,2 | z2 z2 F,,2 | z2 B,,2 B,,2 | C,2 C,2 x2 | x6 | x6 | x6 | x6 || x6 | x6 | x6 || %29
w: |||||||||||
 x6 | x6 | x6 | F,2 z2 F,,2 | B,,2 z2 F,,2 | C,2 z2 D,2 | B,,2 B,,2 F,,2 | F,2 z2 F,,2 | %37
w: |||aj- de|de, de|de de,|aj- de de,|aj- de|
 B,,2 z2 F,,2 | B,,2 z2 F,,2 | C,2 C,2 F,,2 | x6 | x6 | x6 | x6 ||[K:Fmin] x6 | x6 | x6 | x6 | x6 | %49
w: de de|de de,|aj- de de,||||||||||
 x6 | x6 | x6 | x6 | x6 | x6 | x6 | x6 | x6 ||[K:F] z2 z2 B,,2 | z2 z2 F,,2 | z2 B,,2 B,,2 | %61
w: |||||||||Po-|pe-|la se|
 C,2 C,2 F,,2 | x6 | x6 | x6 | x6 || x6 | x6 | x6 | x6 | x6 | x6 | x6 | x6 | x6 | x6 | x6 | x6 | %78
w: ko- zi- ca,|||||||||||||||||
 x6 | x6 | x6 | x6 | x6 | x6 | x6 | x6 | x6 | x6 || x6 | x6 | x6 | x6 | x6 | x6 | x6 | x6 | x6 | %97
w: |||||||||||||||||||
 x6 | x6 | x6 | x6 | x6 |] %102
w: |||||

